svg/fluentui-system-icons/ic_fluent_task_list_square_ltr_16_filled.svg

<svg width="16" height="16" viewBox="0 0 16 16" fill="none" xmlns="http://www.w3.org/2000/svg">
<path d="M2 4.5C2 3.11929 3.11929 2 4.5 2H11.5C12.8807 2 14 3.11929 14 4.5V11.5C14 12.8807 12.8807 14 11.5 14H4.5C3.11929 14 2 12.8807 2 11.5V4.5ZM8.5 10.5C8.5 10.7761 8.72386 11 9 11H11.25C11.5261 11 11.75 10.7761 11.75 10.5C11.75 10.2239 11.5261 10 11.25 10H9C8.72386 10 8.5 10.2239 8.5 10.5ZM9 6C8.72386 6 8.5 6.22386 8.5 6.5C8.5 6.77614 8.72386 7 9 7H11.25C11.5261 7 11.75 6.77614 11.75 6.5C11.75 6.22386 11.5261 6 11.25 6H9ZM7.35355 9.14645C7.15829 8.95118 6.84171 8.95118 6.64645 9.14645L5.5 10.2929L5.10551 9.8984C4.91024 9.70314 4.59366 9.70314 4.3984 9.8984C4.20314 10.0937 4.20314 10.4102 4.3984 10.6055L5.14645 11.3536C5.34171 11.5488 5.65829 11.5488 5.85355 11.3536L7.35355 9.85355C7.54882 9.65829 7.54882 9.34171 7.35355 9.14645ZM7.35355 5.85355C7.54882 5.65829 7.54882 5.34171 7.35355 5.14645C7.15829 4.95118 6.84171 4.95118 6.64645 5.14645L5.5 6.29289L5.10551 5.8984C4.91024 5.70314 4.59366 5.70314 4.3984 5.8984C4.20314 6.09366 4.20314 6.41024 4.3984 6.60551L5.14645 7.35355C5.34171 7.54882 5.65829 7.54882 5.85355 7.35355L7.35355 5.85355Z" fill="#212121"/>
</svg>

<svg xmlns="http://www.w3.org/2000/svg" width="16" height="16"><path d="M2 4.5A2.5 2.5 0 0 1 4.5 2h7A2.5 2.5 0 0 1 14 4.5v7a2.5 2.5 0 0 1-2.5 2.5h-7A2.5 2.5 0 0 1 2 11.5v-7Zm6.5 6a.5.5 0 0 0 .5.5h2.25a.5.5 0 0 0 0-1H9a.5.5 0 0 0-.5.5ZM9 6a.5.5 0 0 0 0 1h2.25a.5.5 0 0 0 0-1H9ZM7.354 9.146a.5.5 0 0 0-.708 0L5.5 10.293l-.394-.395a.5.5 0 0 0-.708.707l.748.749a.5.5 0 0 0 .708 0l1.5-1.5a.5.5 0 0 0 0-.708Zm0-3.292a.5.5 0 1 0-.708-.708L5.5 6.293l-.394-.395a.5.5 0 0 0-.708.708l.748.748a.5.5 0 0 0 .708 0l1.5-1.5Z"/></svg>
